svgs/aospenhancer.svg

<svg xmlns="http://www.w3.org/2000/svg" viewBox="0 0 192 192"><path d="M18.615 171.3c-1.564-1.095-2.615-3.063-2.615-4.894 0-3.206 21.977-39.748 26.186-43.54 2.154-1.941 5.883-2.067 53.065-1.795 27.912.161 51.931.565 53.375.899 1.444.334 3.377 2.055 4.296 3.825.918 1.77 6.487 10.875 12.374 20.233 11.588 18.421 12.746 22.182 7.82 25.409-3.834 2.512-6.581 1.458-12.019-4.612-9.538-10.646-23.987-19.353-40.391-24.341-12.683-3.856-36.673-3.865-49.412-.018-14.371 4.34-26.408 11.288-37.259 21.51-5.346 5.035-10.414 9.155-11.263 9.155-.848 0-2.719-.824-4.157-1.831Zm30.647-59.478c-4.493-1.298-6.696-4.802-5.647-8.981.416-1.656 3.562-7.828 6.992-13.714s13.267-22.878 21.86-37.761c8.593-14.882 16.702-28.25 18.019-29.705 2.639-2.918 7.544-3.469 10.474-1.177 3.604 2.819 32.687 54.654 32.687 58.259 0 6.528-3.169 7.867-19.734 8.338-17.371.494-23.323-.789-25.078-5.406-2.465-6.482 3.005-12.073 11.811-12.073 6.721 0 7.686-5.025 2.528-13.159-6.672-10.521-9.161-9.59-18.597 6.956-3.987 6.99-7.782 14.112-8.434 15.826-1.7 4.473.395 10.939 4.492 13.855 3.175 2.261 5.061 2.404 31.782 2.404 22.629 0 29.083.35 31.734 1.721 5.744 2.97 6.58 9.642 1.69 13.488-3.018 2.374-4.275 2.435-47.941 2.332-24.663-.058-46.55-.6-48.638-1.203Z"/></svg>

<svg
    xmlns="http://www.w3.org/2000/svg"
    viewBox="0 0 192 192"
    id="vector">
    <path
        id="path"
        d="M 18.615 171.3 C 17.051 170.205 16 168.237 16 166.406 C 16 163.2 37.977 126.658 42.186 122.866 C 44.34 120.925 48.069 120.799 95.251 121.071 C 123.163 121.232 147.182 121.636 148.626 121.97 C 150.07 122.304 152.003 124.025 152.922 125.795 C 153.84 127.565 159.409 136.67 165.296 146.028 C 176.884 164.449 178.042 168.21 173.116 171.437 C 169.282 173.949 166.535 172.895 161.097 166.825 C 151.559 156.179 137.11 147.472 120.706 142.484 C 108.023 138.628 84.033 138.619 71.294 142.466 C 56.923 146.806 44.886 153.754 34.035 163.976 C 28.689 169.011 23.621 173.131 22.772 173.131 C 21.924 173.131 20.053 172.307 18.615 171.3 Z M 49.262 111.822 C 44.769 110.524 42.566 107.02 43.615 102.841 C 44.031 101.185 47.177 95.013 50.607 89.127 C 54.037 83.241 63.874 66.249 72.467 51.366 C 81.06 36.484 89.169 23.116 90.486 21.661 C 93.125 18.743 98.03 18.192 100.96 20.484 C 104.564 23.303 133.647 75.138 133.647 78.743 C 133.647 85.271 130.478 86.61 113.913 87.081 C 96.542 87.575 90.59 86.292 88.835 81.675 C 86.37 75.193 91.84 69.602 100.646 69.602 C 107.367 69.602 108.332 64.577 103.174 56.443 C 96.502 45.922 94.013 46.853 84.577 63.399 C 80.59 70.389 76.795 77.511 76.143 79.225 C 74.443 83.698 76.538 90.164 80.635 93.08 C 83.81 95.341 85.696 95.484 112.417 95.484 C 135.046 95.484 141.5 95.834 144.151 97.205 C 149.895 100.175 150.731 106.847 145.841 110.693 C 142.823 113.067 141.566 113.128 97.9 113.025 C 73.237 112.967 51.35 112.425 49.262 111.822 Z"
        fill="#000000"
        stroke-width="12"/>
</svg>
